!!!OTL: Christlied der Hirten (297), S. 615
!!!id: T0486a
**kern
*clefG2
*k[f#]
*G:
{8g
=1
8g
4g
4f#
8g
4.e
8d
=2
4e
4f#
2g}
=3
{4g
8f#
8g
4.e
8d
=4
4e
4f#
2g}
=5
4r
=6
{4g
4.g
8g
=7
8e
8f#
4g
4.f#
8e
=8
4e
4d}
=9
{4g
4a
=10
2b
=11
4g
4a
=12
2b}
=13
{4b
8a
8g
=14
8a
8g
4f#
4g
4f#
=15
4e
4cc}
=16
{4b
8a
8g
=17
8a
8g
4f#
4g
4f#
=18
1e}
==
*-
!!!minrhy: 8
!!!meters: 4/4 ]  ZZ[6
!!!cut1: Christlied der Hirten (297), S. 615
!!!cut2: Melodie I
!!!reg: Luxemburg
!!!trd: Singendes Volk, Esch-Alzette 1937 posth.
!!!rhy1:   X_X_XX_.X  X_X_X__
!!!rhy2: X_XXX_.X  X_X_X__  0_
!!!key: T0486a 08  G 4/4 ]  ZZ[6
!!!mod: HEPTATONIK IONISCH]  AMBITUS[7b
!!!kad: 11-5334-6
!!!akz: -6-61_1-6-61_1-6-7-6_13_13_321-6_321-6-6_
!!!fot: 'a__a__b__c__c__d__dv_
!!!for: 'a__b__c__d__d__e__ew_
!!!fok: 'V__V__Sd_/__/__Va_\__
!! PHRAS[VORWIEGEND AUFTAKTIG]
!!!fkt: geistliches Lied
!!!bem: Beidweiler, hhh Johann Didier, 4.1.1934
!! THILL, Mathias
!! PR[13] 2K[13] 2G[29] 3K[3] 3G[0] 4A[0] 4Ü[0] 5A[0] 6K[0] 6G[0]
!! 7K[0] 7G[0] 8A[0] MEHR[0] SI[45] ABS[38] SR[42] SP[3]
!! ST[11] 2k[13] 2g[18] 3k[5] 3g[5] 4d[0] 4ü[0] 5d[0] 6k[0] 6g[0]
!! 7k[0] 7g[0] 8d[0] mehr[0] si[42] dm[+3] sr[32] sp[11]
!! 1F[40] 2F[28] 3F[15] 4F[3] LF[0] 2P[15] 3P[0] 4P[0] TRI[0] DF[5] AB[40]
!! TF[0] U3K[0] U3[0] U4[0] U4Ü[0] U5[0] U6K[0] U6[0] U7K[13] U7[3]
!! N1[18] N2K[0] N2[21] N3K[28] N3[0] N4[10] N4Ü[0] N5[8] N6K[0] N6[0]
!!!n7k: 0] N7[0] O1[0] O2K[0] O2[0] O3K[0] O3[0] HÖ[0
